docs/img/icon1/services-comma.svg

<svg width="624" height="865" viewBox="0 0 624 865" fill="none" xmlns="http://www.w3.org/2000/svg">
<path d="M286.949 865H81.9854C53.1387 865 32.6423 858.08 20.4963 844.24C6.83209 831.938 -6.10352e-05 811.178 -6.10352e-05 781.96V689.693C-6.10352e-05 660.476 6.83209 638.947 20.4963 625.107C32.6423 612.804 53.1387 606.653 81.9854 606.653H268.73C288.467 606.653 303.65 600.502 314.277 588.2C324.905 577.436 330.219 562.058 330.219 542.067V507.467H81.9854C53.1386 507.467 32.6423 500.547 20.4963 486.707C6.83209 474.404 0 453.644 0 424.427V83.04C0 53.8222 6.83209 32.2934 20.4963 18.4534C32.6423 6.15118 53.1386 0 81.9854 0H542.015C570.861 0 592.117 6.15118 605.781 18.4534C617.927 32.2934 624 53.8222 624 83.04V516.693C624 633.564 593.635 720.449 532.905 777.347C470.657 835.782 388.672 865 286.949 865Z" fill="#232323"/>
</svg>

<svg width="624" height="865" fill="none" xmlns="http://www.w3.org/2000/svg"><path d="M286.949 865H81.985c-28.846 0-49.343-6.92-61.489-20.76C6.832 831.938 0 811.178 0 781.96v-92.267c0-29.217 6.832-50.746 20.496-64.586 12.146-12.303 32.643-18.454 61.49-18.454H268.73c19.737 0 34.92-6.151 45.547-18.453 10.628-10.764 15.942-26.142 15.942-46.133v-34.6H81.985c-28.846 0-49.343-6.92-61.489-20.76C6.832 474.404 0 453.644 0 424.427V83.04c0-29.218 6.832-50.747 20.496-64.587C32.642 6.151 53.14 0 81.986 0h460.029c28.846 0 50.102 6.151 63.766 18.453C617.927 32.293 624 53.823 624 83.04v433.653c0 116.871-30.365 203.756-91.095 260.654C470.657 835.782 388.672 865 286.949 865z" fill="#232323"/></svg>
